storage/app/icons/phosphoricons/bold/chart-bar-horizontal-bold.svg

<svg xmlns="http://www.w3.org/2000/svg" fill="currentColor" viewBox="0 0 256 256"><path d="M224 92h-36V56a12 12 0 0 0-12-12H60v-4a12 12 0 0 0-24 0v176a12 12 0 0 0 24 0v-4h84a12 12 0 0 0 12-12v-36h68a12 12 0 0 0 12-12v-48a12 12 0 0 0-12-12m-60-24v24H60V68Zm-32 120H60v-24h72Zm80-48H60v-24h152Z"/></svg>

<svg xmlns="http://www.w3.org/2000/svg" viewBox="0 0 256 256" fill="currentColor"><path d="M224,92H188V56a12,12,0,0,0-12-12H60V40a12,12,0,0,0-24,0V216a12,12,0,0,0,24,0v-4h84a12,12,0,0,0,12-12V164h68a12,12,0,0,0,12-12V104A12,12,0,0,0,224,92ZM164,68V92H60V68ZM132,188H60V164h72Zm80-48H60V116H212Z"/></svg>
